X: 1
T:Mylecharaine's March
R:March
O:England
M:3/4
A:Isle of Man
K:D
d>c |\
d2 A2 d>c | d2 A>F d>c | \
d2 A>G F>D | E2 D2 e>f |\
g2 f2 e2 | d2c2 d2 | e3f e>d | e3 d c>d |
e2 a2 g2 | f2 e2 d>c | d2 A>G F>D | E4 F>G |\
A2 G>F E>D | E2 d2 c2 | (d6 | d6)||
|: (3ABc |\
d>c d>e f>d | ed ef ge| \
d>c d>e f>d | e2 A2 c>d|
e2 a2 g2 | f2 e2 d>c | d2 A>G F>D| E4 F>G |\
A2 G>F E>D | E2 d2 c2 | (d6 | d4) :|
